bernoullicharts/1_1_x_alt_series__mean.svg

<?xml version="1.0" encoding="utf-8" standalone="no"?>
<!DOCTYPE svg PUBLIC "-//W3C//DTD SVG 1.1//EN"
  "http://www.w3.org/Graphics/SVG/1.1/DTD/svg11.dtd">
<!-- Created with matplotlib (https://matplotlib.org/) -->
<svg height="345.6pt" version="1.1" viewBox="0 0 460.8 345.6" width="460.8pt" xmlns="http://www.w3.org/2000/svg" xmlns:xlink="http://www.w3.org/1999/xlink">
 <defs>
  <style type="text/css">
*{stroke-linecap:butt;stroke-linejoin:round;}
  </style>
 </defs>
 <g id="figure_1">
  <g id="patch_1">
   <path d="M 0 345.6 
L 460.8 345.6 
L 460.8 0 
L 0 0 
z
" style="fill:#ffffff;"/>
  </g>
  <g id="axes_1">
   <g id="patch_2">
    <path d="M 57.6 307.584 
L 414.72 307.584 
L 414.72 41.472 
L 57.6 41.472 
z
" style="fill:#ffffff;"/>
   </g>
   <g id="matplotlib.axis_1">
    <g id="xtick_1">
     <g id="line2d_1">
      <defs>
       <path d="M 0 0 
L 0 3.5 
" id="mce95ceb95d" style="stroke:#000000;stroke-width:0.8;"/>
      </defs>
      <g>
       <use style="stroke:#000000;stroke-width:0.8;" x="73.800255" xlink:href="#mce95ceb95d" y="307.584"/>
      </g>
     </g>
     <g id="text_1">
      <text style="font-family:DejaVu Sans;font-size:10px;font-style:normal;font-weight:normal;text-anchor:middle;" transform="rotate(-0, 73.800255, 322.182437)" x="73.800255" y="322.182437">0.0</text>
     </g>
    </g>
    <g id="xtick_2">
     <g id="line2d_2">
      <g>
       <use style="stroke:#000000;stroke-width:0.8;" x="138.744153" xlink:href="#mce95ceb95d" y="307.584"/>
      </g>
     </g>
     <g id="text_2">
      <text style="font-family:DejaVu Sans;font-size:10px;font-style:normal;font-weight:normal;text-anchor:middle;" transform="rotate(-0, 138.744153, 322.182437)" x="138.744153" y="322.182437">0.2</text>
     </g>
    </g>
    <g id="xtick_3">
     <g id="line2d_3">
      <g>
       <use style="stroke:#000000;stroke-width:0.8;" x="203.688051" xlink:href="#mce95ceb95d" y="307.584"/>
      </g>
     </g>
     <g id="text_3">
      <text style="font-family:DejaVu Sans;font-size:10px;font-style:normal;font-weight:normal;text-anchor:middle;" transform="rotate(-0, 203.688051, 322.182437)" x="203.688051" y="322.182437">0.4</text>
     </g>
    </g>
    <g id="xtick_4">
     <g id="line2d_4">
      <g>
       <use style="stroke:#000000;stroke-width:0.8;" x="268.631949" xlink:href="#mce95ceb95d" y="307.584"/>
      </g>
     </g>
     <g id="text_4">
      <text style="font-family:DejaVu Sans;font-size:10px;font-style:normal;font-weight:normal;text-anchor:middle;" transform="rotate(-0, 268.631949, 322.182437)" x="268.631949" y="322.182437">0.6</text>
     </g>
    </g>
    <g id="xtick_5">
     <g id="line2d_5">
      <g>
       <use style="stroke:#000000;stroke-width:0.8;" x="333.575847" xlink:href="#mce95ceb95d" y="307.584"/>
      </g>
     </g>
     <g id="text_5">
      <text style="font-family:DejaVu Sans;font-size:10px;font-style:normal;font-weight:normal;text-anchor:middle;" transform="rotate(-0, 333.575847, 322.182437)" x="333.575847" y="322.182437">0.8</text>
     </g>
    </g>
    <g id="xtick_6">
     <g id="line2d_6">
      <g>
       <use style="stroke:#000000;stroke-width:0.8;" x="398.519745" xlink:href="#mce95ceb95d" y="307.584"/>
      </g>
     </g>
     <g id="text_6">
      <text style="font-family:DejaVu Sans;font-size:10px;font-style:normal;font-weight:normal;text-anchor:middle;" transform="rotate(-0, 398.519745, 322.182437)" x="398.519745" y="322.182437">1.0</text>
     </g>
    </g>
    <g id="text_7">
     <text style="font-family:DejaVu Sans;font-size:10px;font-style:normal;font-weight:normal;text-anchor:middle;" transform="rotate(-0, 236.16, 335.860562)" x="236.16" y="335.860562">Input Coin's Heads Probability (λ)</text>
    </g>
   </g>
   <g id="matplotlib.axis_2">
    <g id="ytick_1">
     <g id="line2d_7">
      <defs>
       <path d="M 0 0 
L -3.5 0 
" id="me370efc0f8" style="stroke:#000000;stroke-width:0.8;"/>
      </defs>
      <g>
       <use style="stroke:#000000;stroke-width:0.8;" x="57.6" xlink:href="#me370efc0f8" y="287.081514"/>
      </g>
     </g>
     <g id="text_8">
      <text style="font-family:DejaVu Sans;font-size:10px;font-style:normal;font-weight:normal;text-anchor:end;" transform="rotate(-0, 50.6, 290.880732)" x="50.6" y="290.880732">0.5</text>
     </g>
    </g>
    <g id="ytick_2">
     <g id="line2d_8">
      <g>
       <use style="stroke:#000000;stroke-width:0.8;" x="57.6" xlink:href="#me370efc0f8" y="240.378811"/>
      </g>
     </g>
     <g id="text_9">
      <text style="font-family:DejaVu Sans;font-size:10px;font-style:normal;font-weight:normal;text-anchor:end;" transform="rotate(-0, 50.6, 244.17803)" x="50.6" y="244.17803">0.6</text>
     </g>
    </g>
    <g id="ytick_3">
     <g id="line2d_9">
      <g>
       <use style="stroke:#000000;stroke-width:0.8;" x="57.6" xlink:href="#me370efc0f8" y="193.676108"/>
      </g>
     </g>
     <g id="text_10">
      <text style="font-family:DejaVu Sans;font-size:10px;font-style:normal;font-weight:normal;text-anchor:end;" transform="rotate(-0, 50.6, 197.475327)" x="50.6" y="197.475327">0.7</text>
     </g>
    </g>
    <g id="ytick_4">
     <g id="line2d_10">
      <g>
       <use style="stroke:#000000;stroke-width:0.8;" x="57.6" xlink:href="#me370efc0f8" y="146.973405"/>
      </g>
     </g>
     <g id="text_11">
      <text style="font-family:DejaVu Sans;font-size:10px;font-style:normal;font-weight:normal;text-anchor:end;" transform="rotate(-0, 50.6, 150.772624)" x="50.6" y="150.772624">0.8</text>
     </g>
    </g>
    <g id="ytick_5">
     <g id="line2d_11">
      <g>
       <use style="stroke:#000000;stroke-width:0.8;" x="57.6" xlink:href="#me370efc0f8" y="100.270703"/>
      </g>
     </g>
     <g id="text_12">
      <text style="font-family:DejaVu Sans;font-size:10px;font-style:normal;font-weight:normal;text-anchor:end;" transform="rotate(-0, 50.6, 104.069921)" x="50.6" y="104.069921">0.9</text>
     </g>
    </g>
    <g id="ytick_6">
     <g id="line2d_12">
      <g>
       <use style="stroke:#000000;stroke-width:0.8;" x="57.6" xlink:href="#me370efc0f8" y="53.568"/>
      </g>
     </g>
     <g id="text_13">
      <text style="font-family:DejaVu Sans;font-size:10px;font-style:normal;font-weight:normal;text-anchor:end;" transform="rotate(-0, 50.6, 57.367219)" x="50.6" y="57.367219">1.0</text>
     </g>
    </g>
    <g id="text_14">
     <text style="font-family:DejaVu Sans;font-size:10px;font-style:normal;font-weight:normal;text-anchor:middle;" transform="rotate(-90, 28.617187, 174.528)" x="28.617187" y="174.528">Simulated Mean / Function Value</text>
    </g>
   </g>
   <g id="line2d_13">
    <path clip-path="url(#p64567af733)" d="M 73.832727 53.614698 
L 77.112066 58.283115 
L 80.391405 62.859114 
L 83.670744 67.345415 
L 86.950083 71.744628 
L 90.229421 76.059264 
L 93.50876 80.291741 
L 96.788099 84.444382 
L 100.067438 88.519425 
L 103.346777 92.519025 
L 106.626116 96.445257 
L 109.905455 100.300123 
L 113.184793 104.085551 
L 116.464132 107.803399 
L 119.743471 111.455463 
L 123.02281 115.043471 
L 126.302149 118.569096 
L 129.581488 122.033949 
L 132.860826 125.439589 
L 136.140165 128.787522 
L 139.419504 132.0792 
L 142.698843 135.31603 
L 145.978182 138.499373 
L 149.257521 141.630542 
L 152.53686 144.71081 
L 155.816198 147.741409 
L 159.095537 150.723529 
L 162.374876 153.658325 
L 165.654215 156.546915 
L 168.933554 159.390381 
L 172.212893 162.189772 
L 175.492231 164.946106 
L 178.77157 167.660367 
L 182.050909 170.333513 
L 185.330248 172.96647 
L 188.609587 175.560138 
L 191.888926 178.11539 
L 195.168264 180.633073 
L 198.447603 183.114009 
L 201.726942 185.558997 
L 205.006281 187.968813 
L 208.28562 190.344211 
L 211.564959 192.685922 
L 214.844298 194.994658 
L 218.123636 197.271111 
L 221.402975 199.515953 
L 224.682314 201.729838 
L 227.961653 203.913401 
L 231.240992 206.067263 
L 234.520331 208.192024 
L 237.799669 210.288271 
L 241.079008 212.356573 
L 244.358347 214.397485 
L 247.637686 216.411549 
L 250.917025 218.399291 
L 254.196364 220.361222 
L 257.475702 222.297843 
L 260.755041 224.209641 
L 264.03438 226.097089 
L 267.313719 227.960649 
L 270.593058 229.800773 
L 273.872397 231.6179 
L 277.151736 233.412458 
L 280.431074 235.184865 
L 283.710413 236.935528 
L 286.989752 238.664846 
L 290.269091 240.373206 
L 293.54843 242.060988 
L 296.827769 243.728559 
L 300.107107 245.376283 
L 303.386446 247.00451 
L 306.665785 248.613585 
L 309.945124 250.203843 
L 313.224463 251.775613 
L 316.503802 253.329216 
L 319.78314 254.864964 
L 323.062479 256.383164 
L 326.341818 257.884115 
L 329.621157 259.368108 
L 332.900496 260.83543 
L 336.179835 262.28636 
L 339.459174 263.721172 
L 342.738512 265.140131 
L 346.017851 266.543501 
L 349.29719 267.931535 
L 352.576529 269.304484 
L 355.855868 270.662594 
L 359.135207 272.006102 
L 362.414545 273.335243 
L 365.693884 274.650247 
L 368.973223 275.951338 
L 372.252562 277.238735 
L 375.531901 278.512653 
L 378.81124 279.773304 
L 382.090579 281.020893 
L 385.369917 282.255622 
L 388.649256 283.477689 
L 391.928595 284.687288 
L 395.207934 285.884609 
L 398.487273 287.069837 
" style="fill:none;stroke:#1f77b4;stroke-linecap:square;stroke-width:1.5;"/>
   </g>
   <g id="line2d_14">
    <path clip-path="url(#p64567af733)" d="M 73.832727 53.568 
L 77.112066 55.436108 
L 80.391405 61.974486 
L 83.670744 73.183135 
L 86.950083 79.721514 
L 90.229421 77.853405 
L 93.50876 75.985297 
L 96.788099 90.930162 
L 100.067438 97.468541 
L 103.346777 86.259892 
L 106.626116 103.072865 
L 109.905455 95.600432 
L 113.184793 116.149622 
L 116.464132 106.809081 
L 119.743471 114.281514 
L 123.02281 116.149622 
L 126.302149 122.688 
L 129.581488 123.622054 
L 132.860826 125.490162 
L 136.140165 119.885838 
L 139.419504 137.632865 
L 142.698843 134.830703 
L 145.978182 138.566919 
L 149.257521 147.907459 
L 152.53686 145.105297 
L 155.816198 136.698811 
L 159.095537 148.841514 
L 162.374876 167.522595 
L 165.654215 162.852324 
L 168.933554 159.116108 
L 172.212893 164.720432 
L 175.492231 164.720432 
L 178.77157 168.456649 
L 182.050909 165.654486 
L 185.330248 181.533405 
L 188.609587 189.939892 
L 191.888926 185.269622 
L 195.168264 187.13773 
L 198.447603 174.995027 
L 201.726942 193.676108 
L 205.006281 201.148541 
L 208.28562 175.929081 
L 211.564959 183.401514 
L 214.844298 188.071784 
L 218.123636 195.544216 
L 221.402975 189.939892 
L 224.682314 189.939892 
L 227.961653 212.357189 
L 231.240992 225.433946 
L 234.520331 204.884757 
L 237.799669 214.225297 
L 241.079008 210.489081 
L 244.358347 203.016649 
L 247.637686 208.620973 
L 250.917025 226.368 
L 254.196364 230.104216 
L 257.475702 223.565838 
L 260.755041 235.708541 
L 264.03438 229.170162 
L 267.313719 222.631784 
L 270.593058 228.236108 
L 273.872397 219.829622 
L 277.151736 226.368 
L 280.431074 215.159351 
L 283.710413 236.642595 
L 286.989752 232.906378 
L 290.269091 235.708541 
L 293.54843 255.323676 
L 296.827769 236.642595 
L 300.107107 245.983135 
L 303.386446 256.25773 
L 306.665785 243.180973 
L 309.945124 240.378811 
L 313.224463 240.378811 
L 316.503802 243.180973 
L 319.78314 258.125838 
L 323.062479 248.785297 
L 326.341818 261.862054 
L 329.621157 275.872865 
L 332.900496 252.521514 
L 336.179835 262.796108 
L 339.459174 266.532324 
L 342.738512 269.334486 
L 346.017851 258.125838 
L 349.29719 267.466378 
L 352.576529 272.136649 
L 355.855868 278.675027 
L 359.135207 275.872865 
L 362.414545 286.147459 
L 365.693884 265.59827 
L 368.973223 284.279351 
L 372.252562 282.411243 
L 375.531901 275.872865 
L 378.81124 295.488 
L 382.090579 275.872865 
L 385.369917 287.081514 
L 388.649256 290.81773 
L 391.928595 276.806919 
L 395.207934 285.213405 
" style="fill:none;stroke:#ff7f0e;stroke-linecap:square;stroke-width:1.5;"/>
   </g>
   <g id="patch_3">
    <path d="M 57.6 307.584 
L 57.6 41.472 
" style="fill:none;stroke:#000000;stroke-linecap:square;stroke-linejoin:miter;stroke-width:0.8;"/>
   </g>
   <g id="patch_4">
    <path d="M 414.72 307.584 
L 414.72 41.472 
" style="fill:none;stroke:#000000;stroke-linecap:square;stroke-linejoin:miter;stroke-width:0.8;"/>
   </g>
   <g id="patch_5">
    <path d="M 57.6 307.584 
L 414.72 307.584 
" style="fill:none;stroke:#000000;stroke-linecap:square;stroke-linejoin:miter;stroke-width:0.8;"/>
   </g>
   <g id="patch_6">
    <path d="M 57.6 41.472 
L 414.72 41.472 
" style="fill:none;stroke:#000000;stroke-linecap:square;stroke-linejoin:miter;stroke-width:0.8;"/>
   </g>
   <g id="text_15">
    <text style="font-family:DejaVu Sans;font-size:12px;font-style:normal;font-weight:normal;text-anchor:middle;" transform="rotate(-0, 236.16, 35.472)" x="236.16" y="35.472">Expected Value in 1/(1+x) (Alt. Series) Algorithm</text>
   </g>
   <g id="legend_1">
    <g id="patch_7">
     <path d="M 178.941875 78.82825 
L 407.72 78.82825 
Q 409.72 78.82825 409.72 76.82825 
L 409.72 48.472 
Q 409.72 46.472 407.72 46.472 
L 178.941875 46.472 
Q 176.941875 46.472 176.941875 48.472 
L 176.941875 76.82825 
Q 176.941875 78.82825 178.941875 78.82825 
z
" style="fill:#ffffff;opacity:0.8;stroke:#cccccc;stroke-linejoin:miter;"/>
    </g>
    <g id="line2d_15">
     <path d="M 180.941875 54.570437 
L 200.941875 54.570437 
" style="fill:none;stroke:#1f77b4;stroke-linecap:square;stroke-width:1.5;"/>
    </g>
    <g id="line2d_16"/>
    <g id="text_16">
     <text style="font-family:DejaVu Sans;font-size:10px;font-style:normal;font-weight:normal;text-anchor:start;" transform="rotate(-0, 208.941875, 58.070437)" x="208.941875" y="58.070437">1/(1+x)</text>
    </g>
    <g id="line2d_17">
     <path d="M 180.941875 69.248562 
L 200.941875 69.248562 
" style="fill:none;stroke:#ff7f0e;stroke-linecap:square;stroke-width:1.5;"/>
    </g>
    <g id="line2d_18"/>
    <g id="text_17">
     <text style="font-family:DejaVu Sans;font-size:10px;font-style:normal;font-weight:normal;text-anchor:start;" transform="rotate(-0, 208.941875, 72.748562)" x="208.941875" y="72.748562">Simulated Mean of 1/(1+x) (Alt. Series)</text>
    </g>
   </g>
  </g>
 </g>
 <defs>
  <clipPath id="p64567af733">
   <rect height="266.112" width="357.12" x="57.6" y="41.472"/>
  </clipPath>
 </defs>
</svg>

<svg height="460.8" viewBox="0 0 460.8 345.6" width="614.4" xmlns="http://www.w3.org/2000/svg" xmlns:xlink="http://www.w3.org/1999/xlink"><defs><style>*{stroke-linecap:butt;stroke-linejoin:round}</style></defs><g id="figure_1"><path d="M0 345.6h460.8V0H0z" fill="#fff" id="patch_1"/><g id="axes_1"><path d="M57.6 307.584h357.12V41.472H57.6z" fill="#fff" id="patch_2"/><g id="matplotlib.axis_1"><g id="xtick_1"><g id="line2d_1"><defs><path d="M0 0v3.5" id="mce95ceb95d" stroke="#000" stroke-width=".8"/></defs><use x="73.8" xlink:href="#mce95ceb95d" y="307.584" stroke="#000" stroke-width=".8"/></g><text x="73.8" y="322.182" font-family="DejaVu Sans" font-size="10" font-weight="400" text-anchor="middle" id="text_1">0.0</text></g><g id="xtick_2"><use x="138.744" xlink:href="#mce95ceb95d" y="307.584" stroke="#000" stroke-width=".8" id="line2d_2"/><text x="138.744" y="322.182" font-family="DejaVu Sans" font-size="10" font-weight="400" text-anchor="middle" id="text_2">0.2</text></g><g id="xtick_3"><use x="203.688" xlink:href="#mce95ceb95d" y="307.584" stroke="#000" stroke-width=".8" id="line2d_3"/><text x="203.688" y="322.182" font-family="DejaVu Sans" font-size="10" font-weight="400" text-anchor="middle" id="text_3">0.4</text></g><g id="xtick_4"><use x="268.632" xlink:href="#mce95ceb95d" y="307.584" stroke="#000" stroke-width=".8" id="line2d_4"/><text x="268.632" y="322.182" font-family="DejaVu Sans" font-size="10" font-weight="400" text-anchor="middle" id="text_4">0.6</text></g><g id="xtick_5"><use x="333.576" xlink:href="#mce95ceb95d" y="307.584" stroke="#000" stroke-width=".8" id="line2d_5"/><text x="333.576" y="322.182" font-family="DejaVu Sans" font-size="10" font-weight="400" text-anchor="middle" id="text_5">0.8</text></g><g id="xtick_6"><use x="398.52" xlink:href="#mce95ceb95d" y="307.584" stroke="#000" stroke-width=".8" id="line2d_6"/><text x="398.52" y="322.182" font-family="DejaVu Sans" font-size="10" font-weight="400" text-anchor="middle" id="text_6">1.0</text></g><text x="236.16" y="335.861" font-family="DejaVu Sans" font-size="10" font-weight="400" text-anchor="middle" id="text_7">Input Coin&apos;s Heads Probability (λ)</text></g><g id="matplotlib.axis_2"><g id="ytick_1"><g id="line2d_7"><defs><path d="M0 0h-3.5" id="me370efc0f8" stroke="#000" stroke-width=".8"/></defs><use x="57.6" xlink:href="#me370efc0f8" y="287.082" stroke="#000" stroke-width=".8"/></g><text x="50.6" y="290.881" font-family="DejaVu Sans" font-size="10" font-weight="400" text-anchor="end" id="text_8">0.5</text></g><g id="ytick_2"><use x="57.6" xlink:href="#me370efc0f8" y="240.379" stroke="#000" stroke-width=".8" id="line2d_8"/><text x="50.6" y="244.178" font-family="DejaVu Sans" font-size="10" font-weight="400" text-anchor="end" id="text_9">0.6</text></g><g id="ytick_3"><use x="57.6" xlink:href="#me370efc0f8" y="193.676" stroke="#000" stroke-width=".8" id="line2d_9"/><text x="50.6" y="197.475" font-family="DejaVu Sans" font-size="10" font-weight="400" text-anchor="end" id="text_10">0.7</text></g><g id="ytick_4"><use x="57.6" xlink:href="#me370efc0f8" y="146.973" stroke="#000" stroke-width=".8" id="line2d_10"/><text x="50.6" y="150.773" font-family="DejaVu Sans" font-size="10" font-weight="400" text-anchor="end" id="text_11">0.8</text></g><g id="ytick_5"><use x="57.6" xlink:href="#me370efc0f8" y="100.271" stroke="#000" stroke-width=".8" id="line2d_11"/><text x="50.6" y="104.07" font-family="DejaVu Sans" font-size="10" font-weight="400" text-anchor="end" id="text_12">0.9</text></g><g id="ytick_6"><use x="57.6" xlink:href="#me370efc0f8" y="53.568" stroke="#000" stroke-width=".8" id="line2d_12"/><text x="50.6" y="57.367" font-family="DejaVu Sans" font-size="10" font-weight="400" text-anchor="end" id="text_13">1.0</text></g><text transform="rotate(-90 28.617 174.528)" x="28.617" y="174.528" font-family="DejaVu Sans" font-size="10" font-weight="400" text-anchor="middle" id="text_14">Simulated Mean / Function Value</text></g><path clip-path="url(#p64567af733)" d="M73.833 53.615l3.28 4.668 3.278 4.576 3.28 4.486 3.28 4.4 3.278 4.314 3.28 4.233 3.28 4.152 3.278 4.075 3.28 4 3.28 3.926 3.278 3.855 3.28 3.786 3.28 3.717 3.278 3.652 3.28 3.588 3.28 3.526 3.278 3.465 3.28 3.406 3.28 3.348 3.279 3.291 3.279 3.237 3.28 3.183 3.279 3.132 3.279 3.08 3.28 3.03 3.279 2.983 3.279 2.934 3.28 2.889 3.279 2.843 3.279 2.8 3.28 2.756 3.279 2.714 3.279 2.674 3.28 2.632 3.279 2.594 3.279 2.555 3.28 2.518 3.279 2.481 3.279 2.445 3.28 2.41 3.279 2.375 3.279 2.342 3.28 2.309 3.279 2.276 3.279 2.245 3.28 2.214 3.279 2.183 3.279 2.154 3.28 2.125 3.279 2.096 3.279 2.069 3.28 2.04 3.279 2.015 3.279 1.987 3.28 1.962 3.279 1.937 3.279 1.912 3.28 1.887 3.279 1.864 3.28 1.84 3.278 1.817 3.28 1.794 3.28 1.773 3.278 1.75 3.28 1.73 3.28 1.708 3.278 1.688 3.28 1.668 3.28 1.647 3.278 1.629 3.28 1.609 3.28 1.59 3.278 1.572 3.28 1.553 3.28 1.536 3.278 1.518 3.28 1.501 3.28 1.484 3.278 1.467 3.28 1.451 3.28 1.435 3.279 1.42 3.279 1.403 3.28 1.388 3.279 1.372 3.279 1.359 3.28 1.343 3.279 1.33 3.279 1.314 3.28 1.301 3.279 1.288 3.279 1.274 3.28 1.26 3.279 1.248 3.279 1.235 3.28 1.222 3.279 1.21 3.279 1.197 3.28 1.185" fill="none" stroke="#1f77b4" stroke-linecap="square" stroke-width="1.5" id="line2d_13"/><path clip-path="url(#p64567af733)" d="M73.833 53.568l3.28 1.868 3.278 6.538 3.28 11.21 3.28 6.538 3.278-1.869 3.28-1.868 3.28 14.945 3.278 6.539 3.28-11.21 3.28 16.814 3.278-7.473 3.28 20.55 3.28-9.34 3.278 7.472 3.28 1.868 3.28 6.538 3.278.934 3.28 1.868 3.28-5.604 3.279 17.747 3.279-2.802 3.28 3.736 3.279 9.34 3.279-2.802 3.28-8.406 3.279 12.143 3.279 18.68 3.28-4.67 3.279-3.736 3.279 5.604h3.28l3.279 3.737 3.279-2.803 3.28 15.88 3.279 8.406 3.279-4.67 3.28 1.868 3.279-12.143 3.279 18.681 3.28 7.473 3.279-25.22 3.279 7.473 3.28 4.67 3.279 7.472 3.279-5.604h3.28l3.279 22.417 3.279 13.077 3.28-20.55 3.279 9.341 3.279-3.736 3.28-7.472 3.279 5.604 3.279 17.747 3.28 3.736 3.279-6.538 3.279 12.143 3.28-6.539 3.279-6.538 3.28 5.604 3.278-8.406 3.28 6.538 3.28-11.209 3.278 21.484 3.28-3.737 3.28 2.803 3.278 19.615 3.28-18.681 3.28 9.34 3.278 10.275 3.28-13.077 3.28-2.802h3.278l3.28 2.802 3.28 14.945 3.278-9.34 3.28 13.076 3.28 14.01 3.278-23.35 3.28 10.274 3.28 3.736 3.279 2.802 3.279-11.208 3.28 9.34 3.279 4.67 3.279 6.539 3.28-2.802 3.279 10.274 3.279-20.549 3.28 18.681 3.279-1.868 3.279-6.538 3.28 19.615 3.279-19.615 3.279 11.209 3.28 3.736 3.279-14.011 3.279 8.406" fill="none" stroke="#ff7f0e" stroke-linecap="square" stroke-width="1.5" id="line2d_14"/><path d="M57.6 307.584V41.472" fill="none" stroke="#000" stroke-linecap="square" stroke-width=".8" id="patch_3"/><path d="M414.72 307.584V41.472" fill="none" stroke="#000" stroke-linecap="square" stroke-width=".8" id="patch_4"/><path d="M57.6 307.584h357.12" fill="none" stroke="#000" stroke-linecap="square" stroke-width=".8" id="patch_5"/><path d="M57.6 41.472h357.12" fill="none" stroke="#000" stroke-linecap="square" stroke-width=".8" id="patch_6"/><text x="236.16" y="35.472" font-family="DejaVu Sans" font-size="12" font-weight="400" text-anchor="middle" id="text_15">Expected Value in 1/(1+x) (Alt. Series) Algorithm</text><g id="legend_1"><path d="M178.942 78.828H407.72q2 0 2-2V48.472q0-2-2-2H178.942q-2 0-2 2v28.356q0 2 2 2z" fill="#fff" opacity=".8" stroke="#ccc" id="patch_7"/><path d="M180.942 54.57h20" fill="none" stroke="#1f77b4" stroke-linecap="square" stroke-width="1.5" id="line2d_15"/><text x="208.942" y="58.07" font-family="DejaVu Sans" font-size="10" font-weight="400" id="text_16">1/(1+x)</text><path d="M180.942 69.249h20" fill="none" stroke="#ff7f0e" stroke-linecap="square" stroke-width="1.5" id="line2d_17"/><text x="208.942" y="72.749" font-family="DejaVu Sans" font-size="10" font-weight="400" id="text_17">Simulated Mean of 1/(1+x) (Alt. Series)</text></g></g></g><defs><clipPath id="p64567af733"><path d="M57.6 41.472h357.12v266.112H57.6z"/></clipPath></defs></svg>
